lib/flags/s/GIB.svg

<svg xmlns="http://www.w3.org/2000/svg" fill="none" viewBox="0 0 16 12"><mask id="GIB_svg__a" width="16" height="12" x="0" y="0" mask-type="alpha" maskUnits="userSpaceOnUse"><path fill="#fff" d="M0 0H16V12H0z"/></mask><g mask="url(#GIB_svg__a)"><path fill="#F7FCFF" d="M0 0H16V12H0z"/><path fill="#C51918" fill-rule="evenodd" d="M0 8H16V12H0V8Z" clip-rule="evenodd"/><path fill="#DB000B" fill-rule="evenodd" d="M8.22896 0.633301H7.28159V1.48092H7.74921L7.71585 3.81187H6.33423V2.75235H6.80791V1.90473H5.86054V2.32854H5.38686V1.90473H4.43949V2.75235H4.91317V3.81187H3.91425V4.65949L4.38793 4.65949V7.20235H3.91425V8.04997H12.9142V7.20235H11.9669V4.65949H12.9142V3.81187H11.9856L12.0091 2.75235H12.4921V1.90473H11.5448V2.32854H11.0711V1.90473H10.1237V2.75235H10.588L10.5646 3.81187H9.1369L9.17027 1.48092H9.65002V0.633301H8.70265V1.05711H8.22896V0.633301Z" clip-rule="evenodd"/><path fill="#272727" fill-rule="evenodd" d="M5.80792 6.84511C5.80792 6.5399 6.05534 6.29248 6.36055 6.29248 6.66576 6.29248 6.91319 6.5399 6.91319 6.84511V7.75915H5.80792V6.84511zM9.86053 6.84511C9.86053 6.5399 10.108 6.29248 10.4132 6.29248 10.7184 6.29248 10.9658 6.5399 10.9658 6.84511V7.75915H9.86053V6.84511zM7.65002 6.66262C7.65002 6.25568 7.97992 5.92578 8.38687 5.92578 8.79381 5.92578 9.12371 6.25568 9.12371 6.66262V8.12578H7.65002V6.66262z" clip-rule="evenodd"/><path fill="#E8AA00" fill-rule="evenodd" d="M8.66114 7.59866 8.57074 7.76464 8.40238 7.51343 7.02295 8.4379 8.56089 9.16981 9.91726 8.28285 8.66114 7.59866zM8.03128 8.36403 8.47502 8.06665 8.94382 8.32199 8.52223 8.59768 8.03128 8.36403zM7.57892 10.2667H8.31576V11.0001H7.57892V10.2667z" clip-rule="evenodd"/><path fill="#E8AA00" fill-rule="evenodd" d="M8 9H8.87441V11H8V9Z" clip-rule="evenodd"/></g></svg>

<svg xmlns="http://www.w3.org/2000/svg" fill="none" viewBox="0 0 16 12"><mask id="GIB_svg__a" width="16" height="12" x="0" y="0" maskUnits="userSpaceOnUse"><path fill="#fff" d="M0 0h16v12H0z"/></mask><g mask="url(#GIB_svg__a)"><path fill="#F7FCFF" d="M0 0h16v12H0z"/><path fill="#C51918" fill-rule="evenodd" d="M0 8h16v4H0V8z" clip-rule="evenodd"/><path fill="#DB000B" fill-rule="evenodd" d="M8.229.633h-.947v.848h.467l-.033 2.33H6.334V2.753h.474v-.847H5.86v.424h-.474v-.424h-.948v.847h.474v1.06h-.999v.848h.474v2.542h-.474v.848h9v-.848h-.947V4.66h.947v-.848h-.928l.023-1.06h.483v-.847h-.947v.424h-.474v-.424h-.947v.847h.464l-.023 1.06H9.137L9.17 1.48h.48V.633h-.947v.424h-.474V.633z" clip-rule="evenodd"/><path fill="#272727" fill-rule="evenodd" d="M5.808 6.845a.553.553 0 111.105 0v.914H5.808v-.914zm4.052 0a.553.553 0 011.106 0v.914H9.86v-.914zm-2.21-.182a.737.737 0 011.474 0v1.463H7.65V6.663z" clip-rule="evenodd"/><path fill="#E8AA00" fill-rule="evenodd" d="M8.661 7.599l-.09.166-.169-.252-1.379.925 1.538.732 1.356-.887-1.256-.684zm-.63.765l.444-.297.469.255-.422.276-.49-.234zm-.452 1.903h.737V11h-.737v-.733z" clip-rule="evenodd"/><path fill="#E8AA00" fill-rule="evenodd" d="M8 9h.874v2H8V9z" clip-rule="evenodd"/></g></svg>
